assets/images/services/icon-services-2.svg

<svg viewBox="0 0 67 53.02" xmlns="http://www.w3.org/2000/svg"><g fill-rule="evenodd" transform="translate(0 -.01)"><path d="m62.15 16h-15.82l-1.4-6.63a4.45 4.45 0 0 0 -4.35-3.37h-7.58a4.45 4.45 0 0 0 -4.35 3.37l-1.39 6.63h-16.38a3.7 3.7 0 0 0 -3.88 4v28.41c0 2.41 1.47 4.59 3.88 4.59h51.27a5 5 0 0 0 4.85-4.59v-28.41c0-2.37-2.44-4-4.85-4z" fill="#8b71b5"/><path d="m57.15 50h-51.27a5.68 5.68 0 0 1 -5.88-5.59v-28.41a6 6 0 0 1 5.88-6h15.12l1.14-5.44a6 6 0 0 1 5.86-4.56h7.58a6 6 0 0 1 5.81 4.5l1.15 5.5h14.61a6 6 0 0 1 5.85 6v28.41a5.6 5.6 0 0 1 -5.85 5.59zm-51.27-37a3 3 0 0 0 -2.88 3v28.41a2.66 2.66 0 0 0 2.88 2.59h51.27a2.65 2.65 0 0 0 2.85-2.59v-28.41a3 3 0 0 0 -2.85-3h-15.82a1.5 1.5 0 0 1 -1.47-1.19l-1.39-6.63a3 3 0 0 0 -2.89-2.18h-7.58a3 3 0 0 0 -2.89 2.23l-1.39 6.58a1.49 1.49 0 0 1 -1.46 1.19z"/><path d="m50 33.5a13.85 13.85 0 1 1 -13.81-13.86 13.85 13.85 0 0 1 13.81 13.86z" fill="#53ecf4"/><path d="m44.68 33.5a8.5 8.5 0 0 1 -17 .26v-.26a8.51 8.51 0 0 1 8.5-8.5 8.5 8.5 0 0 1 8.49 8.5z" fill="#fff"/><path d="m31.19 39.49a10 10 0 1 1 10-10 10 10 0 0 1 -10 10zm0-17a7 7 0 1 0 7 7 7 7 0 0 0 -7-6.99z"/><path d="m31.19 44.85a15.36 15.36 0 1 1 15.35-15.35 15.36 15.36 0 0 1 -15.35 15.35zm0-27.71a12.36 12.36 0 1 0 12.35 12.36 12.37 12.37 0 0 0 -12.35-12.36z"/><path d="m18 7h-8a1.5 1.5 0 0 1 0-3h8a1.5 1.5 0 0 1 0 3z"/><path d="m49.86 5h.62c2.38 0 3.52 1.89 3.52 4.27v1.73h-8v-1.73c0-2.38 1.48-4.27 3.86-4.27z"/></g></svg>

<svg id="Layer_1" data-name="Layer 1" xmlns="http://www.w3.org/2000/svg" viewBox="0 0 67 53.02"><title>icon-services-2</title><g id="group-17svg"><path id="path-1" d="M62.15,16H46.33l-1.4-6.63A4.45,4.45,0,0,0,40.58,6H33a4.45,4.45,0,0,0-4.35,3.37L27.26,16H10.88A3.7,3.7,0,0,0,7,20V48.41C7,50.82,8.47,53,10.88,53H62.15A5,5,0,0,0,67,48.41V20C67,17.63,64.56,16,62.15,16Z" transform="translate(0 -0.01)" style="fill:#8b71b5;fill-rule:evenodd"/><path id="path-2" d="M57.15,50H5.88A5.68,5.68,0,0,1,0,44.41V16a6,6,0,0,1,5.88-6H21l1.14-5.44A6,6,0,0,1,28,0h7.58a6,6,0,0,1,5.81,4.5L42.54,10H57.15A6,6,0,0,1,63,16V44.41A5.6,5.6,0,0,1,57.15,50ZM5.88,13A3,3,0,0,0,3,16V44.41A2.66,2.66,0,0,0,5.88,47H57.15A2.65,2.65,0,0,0,60,44.41V16a3,3,0,0,0-2.85-3H41.33a1.5,1.5,0,0,1-1.47-1.19L38.47,5.18A3,3,0,0,0,35.58,3H28a3,3,0,0,0-2.89,2.23l-1.39,6.58A1.49,1.49,0,0,1,22.26,13Z" transform="translate(0 -0.01)" style="fill-rule:evenodd"/><path id="path-3" d="M50,33.5A13.85,13.85,0,1,1,36.19,19.64,13.85,13.85,0,0,1,50,33.5Z" transform="translate(0 -0.01)" style="fill:#53ecf4;fill-rule:evenodd"/><path id="path-4" d="M44.68,33.5a8.5,8.5,0,0,1-17,.26V33.5a8.51,8.51,0,0,1,8.5-8.5h0a8.5,8.5,0,0,1,8.49,8.5Z" transform="translate(0 -0.01)" style="fill:#fff;fill-rule:evenodd"/><path id="path-5" d="M31.19,39.49a10,10,0,1,1,10-10A10,10,0,0,1,31.19,39.49Zm0-17a7,7,0,1,0,7,7A7,7,0,0,0,31.19,22.5Z" transform="translate(0 -0.01)" style="fill-rule:evenodd"/><path id="path-6" d="M31.19,44.85A15.36,15.36,0,1,1,46.54,29.5,15.36,15.36,0,0,1,31.19,44.85Zm0-27.71A12.36,12.36,0,1,0,43.54,29.5,12.37,12.37,0,0,0,31.19,17.14Z" transform="translate(0 -0.01)" style="fill-rule:evenodd"/><path id="path-7" d="M18,7H10a1.5,1.5,0,0,1,0-3h8a1.5,1.5,0,0,1,0,3Z" transform="translate(0 -0.01)" style="fill-rule:evenodd"/><path id="path-8" d="M49.86,5h.62C52.86,5,54,6.89,54,9.27V11H46V9.27C46,6.89,47.48,5,49.86,5Z" transform="translate(0 -0.01)" style="fill-rule:evenodd"/></g></svg>
